static/images/pieces/mansindam/tomato/bk_reversed.svg

<svg height="52.157" width="52.157" xmlns="http://www.w3.org/2000/svg"><path d="m39.071206 3.9201414-22.551348 7.3933456-10.519858 67.017993 66.141733-.000273-10.51989-67.017953z" fill="#d6c99d" opacity=".9801" stroke="#35342f" stroke-width="1.58228" transform="matrix(.6 0 0 .6 2.635981 1.415442)"/><g style="fill:none;fill-rule:evenodd;stroke:#000;stroke-width:1.5;stroke-linecap:round;stroke-linejoin:round" transform="matrix(.89584544 0 0 .89584544 5.950114 8.889451)"><g stroke="#393831"><path d="m22.5 11.63v-5.63" stroke-linejoin="miter"/><path d="m22.5 25s4.5-7.5 3-10.5c0 0-1-2.5-3-2.5s-3 2.5-3 2.5c-1.5 3 3 10.5 3 10.5" fill="#393831" stroke-linecap="butt" stroke-linejoin="miter"/><path d="m11.5 37c5.5 3.5 15.5 3.5 21 0v-7s9-4.5 6-10.5c-4-6.5-13.5-3.5-16 4v3.5-3.5c-3.5-7.5-13-10.5-16-4-3 6 5 10 5 10z" fill="#393831"/><path d="m20 8h5" stroke-linejoin="miter"/></g><path d="m32 29.5s8.5-4 6.03-9.65c-3.88-5.85-13.03-1.85-15.53 4.65l.01 2.1-.01-2.1c-2.5-6.5-12.594-10.5-15.503-4.65-2.497 5.65 4.853 9 4.853 9" stroke="#d6c99d"/><path d="m11.5 30c5.5-3 15.5-3 21 0m-21 3.5c5.5-3 15.5-3 21 0m-21 3.5c5.5-3 15.5-3 21 0" stroke="#d6c99d"/></g></svg>

<?xml version="1.0" encoding="UTF-8" standalone="no"?>
<svg
   width="52.157"
   height="52.157"
   version="1.1"
   id="svg98222"
   sodipodi:docname="wk.svg"
   inkscape:version="1.3 (0e150ed6c4, 2023-07-21)"
   xml:space="preserve"
   xmlns:inkscape="http://www.inkscape.org/namespaces/inkscape"
   xmlns:sodipodi="http://sodipodi.sourceforge.net/DTD/sodipodi-0.dtd"
   xmlns="http://www.w3.org/2000/svg"
   xmlns:svg="http://www.w3.org/2000/svg"
   xmlns:rdf="http://www.w3.org/1999/02/22-rdf-syntax-ns#"
   xmlns:cc="http://creativecommons.org/ns#"
   xmlns:dc="http://purl.org/dc/elements/1.1/"><metadata
     id="metadata98228"><rdf:RDF><cc:Work
         rdf:about=""><dc:format>image/svg+xml</dc:format><dc:type
           rdf:resource="http://purl.org/dc/dcmitype/StillImage" /></cc:Work></rdf:RDF></metadata><defs
     id="defs98226" /><sodipodi:namedview
     pagecolor="#ffffff"
     bordercolor="#666666"
     borderopacity="1"
     objecttolerance="10"
     gridtolerance="10"
     guidetolerance="10"
     inkscape:pageopacity="0"
     inkscape:pageshadow="2"
     inkscape:window-width="3840"
     inkscape:window-height="2036"
     id="namedview98224"
     showgrid="false"
     inkscape:zoom="19.326264"
     inkscape:cx="38.289863"
     inkscape:cy="20.878324"
     inkscape:window-x="-12"
     inkscape:window-y="-12"
     inkscape:window-maximized="1"
     inkscape:current-layer="svg98222"
     inkscape:showpageshadow="2"
     inkscape:pagecheckerboard="0"
     inkscape:deskcolor="#d1d1d1" /><g
     transform="translate(-0.11215279,-1.6492177)"
     id="g4297"
     style="fill:#d6c99d;fill-opacity:1;stroke:#35342f;stroke-opacity:1"><g
       id="g3979"
       style="opacity:0.99;fill:#d6c99d;fill-opacity:1;stroke:#35342f;stroke-opacity:1"
       transform="matrix(0.6,0,0,0.6,2.7481337,3.0646604)"><path
         style="opacity:0.99;fill:#d6c99d;fill-opacity:1;stroke:#35342f;stroke-width:1.58228;stroke-opacity:1"
         inkscape:connector-curvature="0"
         id="path5763-7"
         d="M 39.071206,3.9201414 16.519858,11.313487 6,78.33148 72.141733,78.331207 61.621843,11.313254 Z"
         sodipodi:nodetypes="cccccc" /></g></g><g
     fill="none"
     fill-rule="evenodd"
     stroke="#000000"
     stroke-width="1.5"
     stroke-linecap="round"
     stroke-linejoin="round"
     id="g6"
     transform="matrix(0.89584544,0,0,0.89584544,5.9501139,8.8894511)"><path
       d="M 22.5,11.63 V 6"
       stroke-linejoin="miter"
       id="path1-5"
       style="stroke:#393831;stroke-opacity:1" /><path
       d="m 22.5,25 c 0,0 4.5,-7.5 3,-10.5 0,0 -1,-2.5 -3,-2.5 -2,0 -3,2.5 -3,2.5 -1.5,3 3,10.5 3,10.5"
       fill="#000000"
       stroke-linecap="butt"
       stroke-linejoin="miter"
       id="path2"
       style="fill:#393831;fill-opacity:1;stroke:#393831;stroke-opacity:1" /><path
       d="m 11.5,37 c 5.5,3.5 15.5,3.5 21,0 v -7 c 0,0 9,-4.5 6,-10.5 -4,-6.5 -13.5,-3.5 -16,4 V 27 23.5 C 19,16 9.5,13 6.5,19.5 c -3,6 5,10 5,10 z"
       fill="#000000"
       id="path3"
       style="fill:#393831;fill-opacity:1;stroke:#393831;stroke-opacity:1" /><path
       d="m 20,8 h 5"
       stroke-linejoin="miter"
       id="path4"
       style="stroke:#393831;stroke-opacity:1" /><path
       d="m 32,29.5 c 0,0 8.5,-4 6.03,-9.65 C 34.15,14 25,18 22.5,24.5 l 0.01,2.1 -0.01,-2.1 C 20,18 9.906,14 6.997,19.85 c -2.497,5.65 4.853,9 4.853,9"
       stroke="#ececec"
       id="path5"
       style="stroke:#d6c99d;stroke-opacity:1" /><path
       d="m 11.5,30 c 5.5,-3 15.5,-3 21,0 m -21,3.5 c 5.5,-3 15.5,-3 21,0 m -21,3.5 c 5.5,-3 15.5,-3 21,0"
       stroke="#ececec"
       id="path6"
       style="stroke:#d6c99d;stroke-opacity:1" /></g></svg>
